usr/share/icons/biglinux-icons-material/24/actions/format-line-spacing-double.svg

<svg xmlns="http://www.w3.org/2000/svg" viewBox="0 0 24 24"><path d="M8 7v1H4v8h4v1h12v-3H8v1H5v-2h1v-2H5V9h3v1h12V7H8z" style="fill:currentColor;fill-opacity:1;stroke:none;color:#dedede"/></svg>

<svg xmlns="http://www.w3.org/2000/svg" viewBox="0 0 24 24">
  <defs id="defs3051">
    <style type="text/css" id="current-color-scheme">
      .ColorScheme-Text {
        color:#363636;
      }
      </style>
  </defs>
 <path style="fill:currentColor;fill-opacity:1;stroke:none" 
     d="M 8 7 L 8 8 L 5 8 L 4 8 L 4 11 L 4 13 L 4 16 L 5 16 L 8 16 L 8 17 L 20 17 L 20 14 L 8 14 L 8 15 L 5 15 L 5 13 L 6 13 L 6 11 L 5 11 L 5 9 L 8 9 L 8 10 L 20 10 L 20 7 L 8 7 z "
     class="ColorScheme-Text"
     />
</svg>
